packages/IonIcons/src/CalendarSharpIcon/index.svg

<svg xmlns="http://www.w3.org/2000/svg" viewBox="0 0 512 512">
  <rect x="272" y="208" width="48" height="48" rx="4" ry="4"/>
  <rect x="352" y="208" width="48" height="48" rx="4" ry="4"/>
  <rect x="272" y="288" width="48" height="48" rx="4" ry="4"/>
  <rect x="352" y="288" width="48" height="48" rx="4" ry="4"/>
  <rect x="112" y="288" width="48" height="48" rx="4" ry="4"/>
  <rect x="192" y="288" width="48" height="48" rx="4" ry="4"/>
  <rect x="112" y="368" width="48" height="48" rx="4" ry="4"/>
  <rect x="192" y="368" width="48" height="48" rx="4" ry="4"/>
  <rect x="272" y="368" width="48" height="48" rx="4" ry="4"/>
  <path d="M448 64h-48V32h-40v32H152V32h-40v32H64a32 32 0 00-32 32v352a32 32 0 0032 32h384a32 32 0 0032-32V96a32 32 0 00-32-32zm-12 372H76V176h360z"/>
</svg>

<svg xmlns="http://www.w3.org/2000/svg" width="512" height="512" viewBox="0 0 512 512"><title>ionicons-v5-e</title><rect x="272" y="208" width="48" height="48" rx="4" ry="4"/><rect x="352" y="208" width="48" height="48" rx="4" ry="4"/><rect x="272" y="288" width="48" height="48" rx="4" ry="4"/><rect x="352" y="288" width="48" height="48" rx="4" ry="4"/><rect x="112" y="288" width="48" height="48" rx="4" ry="4"/><rect x="192" y="288" width="48" height="48" rx="4" ry="4"/><rect x="112" y="368" width="48" height="48" rx="4" ry="4"/><rect x="192" y="368" width="48" height="48" rx="4" ry="4"/><rect x="272" y="368" width="48" height="48" rx="4" ry="4"/><path d="M448,64H400V32H360V64H152V32H112V64H64A32,32,0,0,0,32,96V448a32,32,0,0,0,32,32H448a32,32,0,0,0,32-32V96A32,32,0,0,0,448,64ZM436,436H76V176H436Z"/></svg>
